X:786
T:Trooper's Lane
C:Johnny Cradden
D:Robert Fish Band
Z:Nigel Gatherer
M:2/4
L:1/8
K:Edor
EB  BA | Bc dB |  AB/A/ FA | DE F/E/D |
EB  BA | Bc dB |  ef/e/ dB | AF d2   :|
e>f ge | fd df |  e>f   ge | fB B/A/B |
e>f ge | fd df |1 e>f   ge | fg af   :| 
                2 eB    BA | BA FD   |]
